X: 1
T: the Ferry Jig
O: Trad
B: SCD-20
B: Kerr (Merry Melodies) v.4 #264, p.28
Z: John Chambers <jc:trillian.mit.edu>
R: jig
M: 6/8
L: 1/8
K: A
|: ed \
| "A"cBc Ace \
| "D"f3 "E7"efg \
| "A"a2c "F#m"cBA \
| "Bm"cBB "E7"Bed \
| "A"cBc Ace |
| "D"f3 "E7"efg \
| "A"a2c "E7"BAB \
| "A"A3 z \
:: ed \
| "A"cea aga \
| "D"fdf agf |
| "A"e2c "F#m"cBA \
| "Bm"cBB "E7"Bed \
| "A"cBc Ace \
| "D"f3 "E7"efg \
| "A"a2c "E7"BAB \
| "A"A3 z :|
